X: 25226
T: Maltman Comes On Monday, The
R: slip jig
M: 9/8
K: Dmajor
K: BbMaj
|:EFG B2 G fdB|A2 c dGB A2 F|EFG B2 g fga|b2 B BcB A2 F:|
|:fdf geg fdB|A2 c cGB A2 F|fdf geg fga|b2 B BcB A2 F:|
|:DFD EGE DFD|C2 e GAB A2 F|DFD EGE DFD|Ced cBA B2 B,:|
|:fdB gec fdB|cde GAB A2 F|fdB gec afa|b2 B BcB A2 F:|
|:B3 G3 FDF|G2 c cdc A2 F|B3 G3 FDF|Ged cBA B2 B,:|
|:fBg fge dcB|cde GcB A2 F|dfB egc fga|b2 B BcB A2 F:|
|:GBD EGC DFB,|CEG ceg A2 F|EgE DfD Ced|cdB AFA B2 B,:|
|:fdf Bdf Beg|cde GAB A2 F|fdf Beg cfa|1 b2 B BcB A2 F:|2 bBB cBA B3||

